X:1
T:Title
L:1/8
M:4/4
K:Ab
V:1 treble nm="Grand Piano"
V:1
 z4 z[Q:1/4=100] C2 F | A3 A- A G2 F | G2 G2- G C2 =E | G3 G- G A2 G | F4- F F2 F | B3 B- B A2 G | %6
 A2 F2- F =E2 F | G3 G- G A2 B |[M:5/8] c-c- c3 |[M:3/8] c2 B |[M:4/4] c2 c2- c d2 c | %11
 dcBA G B2 =A | B2 B2- B A2 B | c4- c A2 G | A3 A- A B2 =A | cBAG F =E2 F | G3 B- B A2 G | F6 z2 |] %18

